polaris-icons/icons/CreditCardReaderTapIcon.svg

<svg xmlns="http://www.w3.org/2000/svg" viewBox="0 0 20 20"><path d="M10 4.25C8.20508 4.25 6.75 5.70507 6.75 7.5C6.75 7.91421 6.41421 8.25 6 8.25C5.58579 8.25 5.25 7.91421 5.25 7.5C5.25 4.87665 7.37665 2.75 10 2.75C12.6234 2.75 14.75 4.87665 14.75 7.5C14.75 7.91421 14.4142 8.25 14 8.25C13.5858 8.25 13.25 7.91421 13.25 7.5C13.25 5.70507 11.7949 4.25 10 4.25Z"/>
<path fill-rule="evenodd" d="M5.25 17C4.83579 17 4.5 16.6642 4.5 16.25V11.25C4.5 10.0074 5.50736 9 6.75 9L13.25 9C14.4926 9 15.5 10.0074 15.5 11.25V16.25C15.5 16.6642 15.1642 17 14.75 17H5.25ZM8 15.5H6L6 11.25C6 10.8358 6.33579 10.5 6.75 10.5H8L8 15.5ZM10 10.5H13.25C13.6642 10.5 14 10.8358 14 11.25V15.5H10V10.5Z"/>
<path d="M9.25 7.5C9.25 7.08579 9.58579 6.75 10 6.75C10.4142 6.75 10.75 7.08579 10.75 7.5C10.75 7.91421 11.0858 8.25 11.5 8.25C11.9142 8.25 12.25 7.91421 12.25 7.5C12.25 6.25736 11.2426 5.25 10 5.25C8.75736 5.25 7.75 6.25736 7.75 7.5C7.75 7.91421 8.08579 8.25 8.5 8.25C8.91421 8.25 9.25 7.91421 9.25 7.5Z"/>
</svg>

<svg xmlns="http://www.w3.org/2000/svg" viewBox="0 0 20 20"><path d="M10 4.25c-1.795 0-3.25 1.455-3.25 3.25 0 .414-.336.75-.75.75s-.75-.336-.75-.75c0-2.623 2.127-4.75 4.75-4.75s4.75 2.127 4.75 4.75c0 .414-.336.75-.75.75s-.75-.336-.75-.75c0-1.795-1.455-3.25-3.25-3.25Z"/><path fill-rule="evenodd" d="M5.25 17c-.414 0-.75-.336-.75-.75v-5c0-1.243 1.007-2.25 2.25-2.25h6.5c1.243 0 2.25 1.007 2.25 2.25v5c0 .414-.336.75-.75.75h-9.5Zm2.75-1.5h-2v-4.25c0-.414.336-.75.75-.75h1.25v5Zm2-5h3.25c.414 0 .75.336.75.75v4.25h-4v-5Z"/><path d="M9.25 7.5c0-.414.336-.75.75-.75s.75.336.75.75.336.75.75.75.75-.336.75-.75c0-1.243-1.007-2.25-2.25-2.25s-2.25 1.007-2.25 2.25c0 .414.336.75.75.75s.75-.336.75-.75Z"/></svg>
